X:1
T:Fireball Mail
M:4/4
L:1/8
K:G
 DE| G4- G z B/2A/2 G| E/2- D4- D/2 z DE| G4- G z B/2A/2 B| d4- d z|\
 de| g4- g z e/2d/2 B| d4- d z DE| G2 =F2 D2E/2-D/2 E| G4- G z||
